packages/icons/src/azure-arm.svg

<svg fill="none" height="33" viewBox="0 0 33 33" width="33" xmlns="http://www.w3.org/2000/svg"><g clip-rule="evenodd" fill="#4f5162" fill-rule="evenodd"><path d="m8.13777 6.38169c.23818-.13973.31799-.44609.17826-.68427s-.44609-.31799-.68427-.17826l-5.00301 2.93508c-.306.17952-.49398.50774-.49398.86252v7.13654 7.1362c0 .3551.18828.6835.49468.8629l5.00266 2.9295c.23829.1395.54458.0595.68412-.1788s.05949-.5446-.1788-.6841l-5.00266-2.9295v-7.1362-7.13654zm15.99403 0c-.2382-.13973-.318-.44609-.1783-.68427s.4461-.31799.6843-.17826l5.003 2.93508c.306.17952.494.50774.494.86252v7.13654 7.1362c0 .3551-.1883.6835-.4947.8629l-5.0027 2.9295c-.2383.1395-.5446.0595-.6841-.1788s-.0595-.5446.1788-.6841l5.0027-2.9295v-7.1362-7.13654z"/><path d="m15.9774 6.4162c.1572-.09246.3523-.09197.5091.0013l7.4633 4.4403c.1519.0903.2448.2542.2443.431-.0004.1767-.0942.3401-.2466.4297l-7.5402 4.4323c-.157.0923-.3517.0919-.5084-.001l-7.47377-4.4323c-.15213-.0902-.24528-.2541-.24495-.431.00032-.1768.09407-.3404.24654-.43zm-6.31394 4.8731 6.49164 3.8498 6.5568-3.8542-6.4826-3.85678zm-3.00571 1.6281c.15306-.0898.34223-.0917.49707-.005l7.92028 4.4323c.158.0884.2558.2553.2558.4363v8.6437c0 .1771-.0936.3409-.2461.4308-.1526.0899-.3412.0924-.4961.0066l-7.92032-4.387c-.15904-.0881-.25774-.2555-.25774-.4374v-4.3445-4.3445c0-.1774.09404-.3416.24711-.4313zm.75289 1.2841v3.4917 4.0499l6.92026 3.8331v-7.502zm18.19986-.8528c0-.1793-.096-.3449-.2517-.434s-.3471-.0879-.5017.0029l-7.5402 4.4323c-.1528.0899-.2466.2539-.2466.4311v8.6437c0 .179.0956.3443.2507.4335s.3461.0887.5008-.0013l7.5401-4.387c.1539-.0895.2486-.2541.2486-.4322zm-7.5402 12.2067v-7.4883l6.5402-3.8445v7.5276z"/></g></svg>

<svg width="33" height="33" viewBox="0 0 33 33" fill="none" xmlns="http://www.w3.org/2000/svg">
<path fill-rule="evenodd" clip-rule="evenodd" d="M8.13777 6.38169C8.37595 6.24196 8.45576 5.9356 8.31603 5.69742C8.1763 5.45924 7.86994 5.37943 7.63176 5.51916L2.62875 8.45424C2.32275 8.63376 2.13477 8.96198 2.13477 9.31676V16.4533V23.5895C2.13477 23.9446 2.32305 24.273 2.62945 24.4524L7.63211 27.3819C7.8704 27.5214 8.17669 27.4414 8.31623 27.2031C8.45577 26.9648 8.37572 26.6585 8.13743 26.519L3.13477 23.5895V16.4533V9.31676L8.13777 6.38169ZM24.1318 6.38169C23.8936 6.24196 23.8138 5.9356 23.9535 5.69742C24.0932 5.45924 24.3996 5.37943 24.6378 5.51916L29.6408 8.45424C29.9468 8.63376 30.1348 8.96198 30.1348 9.31676V16.4533V23.5895C30.1348 23.9446 29.9465 24.273 29.6401 24.4524L24.6374 27.3819C24.3991 27.5214 24.0928 27.4414 23.9533 27.2031C23.8138 26.9648 23.8938 26.6585 24.1321 26.519L29.1348 23.5895V16.4533V9.31676L24.1318 6.38169Z" fill="#4F5162"/>
<path fill-rule="evenodd" clip-rule="evenodd" d="M15.9774 6.4162C16.1346 6.32374 16.3297 6.32423 16.4865 6.4175L23.9498 10.8578C24.1017 10.9481 24.1946 11.112 24.1941 11.2888C24.1937 11.4655 24.0999 11.6289 23.9475 11.7185L16.4073 16.1508C16.2503 16.2431 16.0556 16.2427 15.8989 16.1498L8.42513 11.7175C8.273 11.6273 8.17985 11.4634 8.18018 11.2865C8.1805 11.1097 8.27425 10.9461 8.42672 10.8565L15.9774 6.4162ZM9.66346 11.2893L16.1551 15.1391L22.7119 11.2849L16.2293 7.42812L9.66346 11.2893ZM6.65775 12.9174C6.81081 12.8276 6.99998 12.8257 7.15482 12.9124L15.0751 17.3447C15.2331 17.4331 15.3309 17.6 15.3309 17.781V26.4247C15.3309 26.6018 15.2373 26.7656 15.0848 26.8555C14.9322 26.9454 14.7436 26.9479 14.5887 26.8621L6.66838 22.4751C6.50934 22.387 6.41064 22.2196 6.41064 22.0377V17.6932V13.3487C6.41064 13.1713 6.50468 13.0071 6.65775 12.9174ZM7.41064 14.2015V17.6932V21.7431L14.3309 25.5762V18.0742L7.41064 14.2015ZM25.6105 13.3487C25.6105 13.1694 25.5145 13.0038 25.3588 12.9147C25.2031 12.8256 25.0117 12.8268 24.8571 12.9176L17.3169 17.3499C17.1641 17.4398 17.0703 17.6038 17.0703 17.781V26.4247C17.0703 26.6037 17.1659 26.769 17.321 26.8582C17.4761 26.9474 17.6671 26.9469 17.8218 26.8569L25.3619 22.4699C25.5158 22.3804 25.6105 22.2158 25.6105 22.0377V13.3487ZM18.0703 25.5554V18.0671L24.6105 14.2226V21.7502L18.0703 25.5554Z" fill="#4F5162"/>
</svg>
